icons/autocad-light.svg

<svg xmlns="http://www.w3.org/2000/svg" width="256" height="256" fill="none" viewBox="0 0 256 256"><rect width="256" height="256" fill="#F4F2ED" rx="60"/><path fill="#BF2223" d="M105.96 27.0236L148.381 27C157.992 43.9228 166.095 61.758 173.005 80.0567C175.769 86.8552 178.562 93.6537 180.804 100.666C184.16 110.937 188.391 120.87 191.6 131.2C197.904 152.942 203.474 174.913 209.073 196.861C211.161 205.602 214.052 214.1 215.934 222.893C212.966 223.9 209.983 224.872 207.021 225.909C203.693 227.013 200.16 226.902 196.712 227.211C191.776 227.712 186.819 228.035 181.876 228.477L169.973 219.913C169.43 215.961 169.515 211.922 168.802 207.986C166.779 195.367 163.605 182.977 159.995 170.756L93.8099 180.343C93.3162 183.117 92.8015 185.898 92.3008 188.679C90.0867 198.538 90.6437 208.751 90.0514 218.794L74.933 228.529C73.9599 229.308 72.6906 228.881 71.5835 228.867C67.8463 228.477 64.0878 228.492 60.3647 228.021C56.571 227.528 52.5093 228.234 48.9624 226.439C45.9938 224.997 42.9334 223.761 40 222.238C43.3777 205.484 47.8695 188.996 52.2484 172.5C57.6569 151.92 64.1302 131.664 70.7938 111.497C80.13 82.3451 91.9906 54.0768 105.96 27.0223V27.0236ZM124.343 86.4214C118.836 103.094 112.461 119.428 106.566 135.954L141.767 115.72C138.34 105.75 134.885 95.7952 131.26 85.9063C130.57 84.2361 129.878 82.0803 127.974 81.6094C125.711 81.889 125.048 84.5452 124.343 86.4214V86.4214Z"/></svg>

<svg xmlns="http://www.w3.org/2000/svg" width="256" height="256" fill="none"><rect width="256" height="256" fill="#F4F2ED" rx="60"/><path fill="#BF2223" d="M105.96 27.024 148.381 27c9.611 16.923 17.714 34.758 24.624 53.057 2.764 6.798 5.557 13.597 7.799 20.609 3.356 10.271 7.587 20.204 10.796 30.534 6.304 21.742 11.874 43.713 17.473 65.661 2.088 8.741 4.979 17.239 6.861 26.032-2.968 1.007-5.951 1.979-8.913 3.016-3.328 1.104-6.861.993-10.309 1.302-4.936.501-9.893.824-14.836 1.266l-11.903-8.564c-.543-3.952-.458-7.991-1.171-11.927-2.023-12.619-5.197-25.009-8.807-37.23l-66.185 9.587c-.494 2.774-1.008 5.555-1.51 8.336-2.213 9.859-1.656 20.072-2.249 30.115l-15.118 9.735c-.973.779-2.242.352-3.35.338-3.737-.39-7.495-.375-11.218-.846-3.794-.493-7.856.213-11.403-1.582-2.968-1.442-6.029-2.678-8.962-4.201 3.378-16.754 7.87-33.242 12.248-49.738 5.409-20.58 11.882-40.836 18.546-61.003 9.336-29.152 21.197-57.42 35.166-84.475zm18.383 59.397c-5.507 16.673-11.882 33.007-17.777 49.533l35.201-20.234c-3.427-9.97-6.882-19.925-10.507-29.814-.69-1.67-1.382-3.826-3.286-4.297-2.263.28-2.926 2.936-3.631 4.812"/></svg>
